!!!SOCIAL_FUNCTION:	dance songs
!!!PDT:	1943
!!!OTL: No_46_Song_of_Campbell_Dance.krn
!!!REG: British Columbia
**kern
*staff1
=1-
*clefF4
*k[b-e-a-d-]
*M2/4
4r
8.r
16F\
=2!|:
4..B-\
16A-\
=3
16B-\LK
8.B-\J
16B-\LK
8A-\
16A-\Jk
=4
8.A-\L
16A-\Jk
16A-\LL
16F\
16F\
16F\JJ
=5
8.A-\L
16A-\Jk
4A-\
=6
8.F\L
16F\Jk
8.F\L
16F\Jk
=7
4E-\
4r
=8||
*M3/4
16E-\LK
8.E-\J
8.F\L
16F\Jk
8.F\L
16F\Jk
=9:|!
16E-\LK
8.E-\J
8.F\L
16F\Jk
8F\
8r
==
*-
